app/themes/uggwc_pro/assets/images/thema/Informatik.svg

<svg width="16" height="16" viewBox="0 0 16 16" fill="none" xmlns="http://www.w3.org/2000/svg">
<path d="M6.37575 8.13242C6.532 8.27891 6.78525 8.27891 6.9415 8.13242L7.22425 7.86734C7.3805 7.72086 7.3805 7.48344 7.22425 7.33695L6.33125 6.5L7.224 5.66281C7.38025 5.51633 7.38025 5.27891 7.224 5.13242L6.94125 4.86734C6.785 4.72086 6.53175 4.72086 6.3755 4.86734L4.917 6.23469C4.76075 6.38117 4.76075 6.61859 4.917 6.76508L6.37575 8.13242ZM8.776 7.86758L9.05875 8.13266C9.215 8.27914 9.46825 8.27914 9.6245 8.13266L11.083 6.76531C11.2393 6.61883 11.2393 6.38141 11.083 6.23492L9.6245 4.86758C9.46825 4.72109 9.215 4.72109 9.05875 4.86758L8.776 5.13266C8.61975 5.27914 8.61975 5.51656 8.776 5.66305L9.66875 6.5L8.776 7.33719C8.61975 7.48367 8.61975 7.72109 8.776 7.86758ZM15.6 11.75H9.5385C9.52 12.2143 9.17075 12.5 8.72 12.5H7.2C6.73275 12.5 6.3745 12.0905 6.38075 11.75H0.4C0.18 11.75 0 11.9187 0 12.125V12.5C0 13.325 0.72 14 1.6 14H14.4C15.28 14 16 13.325 16 12.5V12.125C16 11.9187 15.82 11.75 15.6 11.75ZM14.4 3.125C14.4 2.50625 13.86 2 13.2 2H2.8C2.14 2 1.6 2.50625 1.6 3.125V11H14.4V3.125ZM12.8 9.5H3.2V3.5H12.8V9.5Z" fill="#6E6CFF"/>
</svg>

<svg width="16" height="16" fill="none" xmlns="http://www.w3.org/2000/svg"><path d="M6.376 8.132a.42.42 0 0 0 .565 0l.283-.265a.359.359 0 0 0 0-.53L6.331 6.5l.893-.837a.359.359 0 0 0 0-.53l-.283-.266a.42.42 0 0 0-.566 0L4.917 6.235a.359.359 0 0 0 0 .53l1.459 1.367zm2.4-.264.283.265a.42.42 0 0 0 .566 0l1.458-1.368a.359.359 0 0 0 0-.53L9.624 4.868a.42.42 0 0 0-.565 0l-.283.265a.359.359 0 0 0 0 .53l.893.837-.893.837a.359.359 0 0 0 0 .53zM15.6 11.75H9.539c-.019.464-.368.75-.819.75H7.2c-.467 0-.825-.41-.82-.75H.4c-.22 0-.4.169-.4.375v.375c0 .825.72 1.5 1.6 1.5h12.8c.88 0 1.6-.675 1.6-1.5v-.375c0-.206-.18-.375-.4-.375zm-1.2-8.625C14.4 2.506 13.86 2 13.2 2H2.8c-.66 0-1.2.506-1.2 1.125V11h12.8V3.125zM12.8 9.5H3.2v-6h9.6v6z" fill="#6E6CFF"/></svg>
